symbols/web/alarm_off/materialsymbolsrounded/alarm_off_wght300gradN25fill1_20px.svg

<svg xmlns="http://www.w3.org/2000/svg" height="20" width="20"><path d="m16.5 18.375-2.25-2.208q-.938.771-2.073 1.187-1.135.417-2.365.417-1.458 0-2.718-.552-1.261-.552-2.209-1.5-.947-.948-1.489-2.219-.542-1.271-.542-2.729 0-1.209.406-2.333.407-1.126 1.198-2.084l-.937-.916-.688.687q-.187.187-.437.177-.25-.01-.438-.198-.187-.187-.187-.427 0-.239.187-.448l.688-.687-.854-.875q-.188-.209-.177-.459.01-.25.197-.437.188-.188.428-.188.239 0 .448.188l14.708 14.708q.187.188.198.448.01.261-.198.448-.208.187-.458.187t-.438-.187Zm-.396-4.687L6.875 4.542q.646-.292 1.375-.469t1.562-.177q1.459 0 2.719.542 1.261.541 2.188 1.468.927.927 1.479 2.188.552 1.26.552 2.677 0 .854-.167 1.552-.166.698-.479 1.365Zm.667-7.542-2.313-2.313q-.187-.187-.177-.437.011-.25.198-.458.188-.188.438-.188t.458.208l2.292 2.292q.187.188.187.438t-.187.437q-.209.208-.459.208t-.437-.187Z"/></svg>

<svg xmlns="http://www.w3.org/2000/svg" height="20" width="20"><path d="M16.5 18.375 14.25 16.167Q13.312 16.938 12.177 17.354Q11.042 17.771 9.812 17.771Q8.354 17.771 7.094 17.219Q5.833 16.667 4.885 15.719Q3.938 14.771 3.396 13.5Q2.854 12.229 2.854 10.771Q2.854 9.562 3.26 8.438Q3.667 7.312 4.458 6.354L3.521 5.438L2.833 6.125Q2.646 6.312 2.396 6.302Q2.146 6.292 1.958 6.104Q1.771 5.917 1.771 5.677Q1.771 5.438 1.958 5.229L2.646 4.542L1.792 3.667Q1.604 3.458 1.615 3.208Q1.625 2.958 1.812 2.771Q2 2.583 2.24 2.583Q2.479 2.583 2.688 2.771L17.396 17.479Q17.583 17.667 17.594 17.927Q17.604 18.188 17.396 18.375Q17.188 18.562 16.938 18.562Q16.688 18.562 16.5 18.375ZM16.104 13.688 6.875 4.542Q7.521 4.25 8.25 4.073Q8.979 3.896 9.812 3.896Q11.271 3.896 12.531 4.438Q13.792 4.979 14.719 5.906Q15.646 6.833 16.198 8.094Q16.75 9.354 16.75 10.771Q16.75 11.625 16.583 12.323Q16.417 13.021 16.104 13.688ZM16.771 6.146 14.458 3.833Q14.271 3.646 14.281 3.396Q14.292 3.146 14.479 2.938Q14.667 2.75 14.917 2.75Q15.167 2.75 15.375 2.958L17.667 5.25Q17.854 5.438 17.854 5.688Q17.854 5.938 17.667 6.125Q17.458 6.333 17.208 6.333Q16.958 6.333 16.771 6.146Z"/></svg>
